X:2608
T:Lady Maxwell's Reel
P:Traditional Scottish Air
C:Trad.
R:Medley (8x32)
B:RSCDS 26-8
Z:Anselm Lingnau <anselm@strathspey.org>
M:C
L:1/8
K:F
c|"F"A2 G>F F2 GA|c2 A>c "Bb"d2 ef|\
  "F"c3A "Bb"B>A"F"GF|"G7"D2G2 "C7"G2 c>B|\
  "F"A2 G>F F2 G>A|
                   "F7"c2 A>c "Bb"d2 ef|\
  "F"c3A "Bb"BAGF|D2F2 "F"F2||\
A>B|"F"c3d c>AGA|cAc>d c3A|
  "Gm"G2 "F"Ac "Dm"f>edc|"Dm"A2 d>e d2 "C7"ze|\
  "F"f3e "Bb"d2"F"cA|"Gm"G2"F"Ac "Dm"f2 de/f/|\
  "F"c3A "Bb"BAGF|D2F2 "F"F2|]
P:Dumfries Lasses
C:Trad.
M:2/4
K:D
A|"D"D2FG A3B|A2F2 f3e|d2f2 A2F2|"A7"B2E2E2 F2|\
  "D"D2FG A3B|
              A2F2 f2d2|A2d2 "A7"cde2|"D"f2d2d2||\
fg|"D"a3f d2d2|d2fg a2f2|
                         "G"b3g "Em"e2d2|"A7"c2e2 A2G2|\
  "D"F2A2 def2|"G"G2B2 e2fg|"D"f2a2 "A7"efg2|"D"f2d2d2|]
